kturtle-script-v1.0
@(learn) xagon $sides@(,) $length {
@(repeat) $sides {@(forward) $length @(turnright) 360/$sides}}


@(learn) expandogon $sides@(,) $x@(,) $inc {$r = 0 @(repeat) 500 { xagon $sides@(,) $x $x = $x + $inc @(turnright) 1

@(pencolor) $r@(,) 56@(,) 80


$r = $r + 1

@(if) $r == 255 {$r = 0}

}}

@(clear) 
@(reset)
expandogon 3@(,) 30@(,) .9

